X: 1
T:Shoals of herring
M:3/4
L:1/8
Q:80
C:
S:
K:HP
|: {g}A3/2{d}c/2{gef}e2{gcd}ce|
{g}fa{fg}f3/2e/2{gcd}c2|
{g}A3/2{d}c/2{gef}e2{gcd}ce|  !
{ag}ac{gcd}c2{e}B2|
{g}A3/2{d}c/2{gef}e2{gcd}ce|
{g}fa{fg}f3/2e/2{gcd}c2|  !
{g}A3/2{d}c/2{gef}e2{gcd}c{e}A|
{Gdc}d3/2c/2{gBd}B2{G}A2:| |:
{ag}a3/2g/2{a}f2a3/2g/2|  !
{a}fa{fg}f3/2e/2{g}c2|
a3/2f/2{gef}e2{gcd}ce|
{ag}ac{gcd}c2{e}B2|1  !
a3/2g/2{a}f2a3/2g/2|
{a}fa{fg}f3/2e/2{gcd}c2|
{g}A3/2{d}c/2{gef}e2{gcd}c{e}A|  !
{Gdc}d3/2c/2{gBd}B2{G}A2:|
